X: 357
T: Shiquan ren
L: 1/8
M: 2/4
K: A
c' e' e' f [I:setbarnb 1]| 
a4 | 
e' f' e' c' | 
b4 | 
b2e' c' | 
b c' b a | 
f b a f | 
e4 | 
c' g f e | 
f2c' b | 
a f e c | 
B4 | 
b f' e' c' | 
e' c' b c' | 
e' c' e' f' | 
c'3b | 
a f e c | 
B4 |]

@@@ Tune index: 9231
